X:49
T: Nem zereg a fa levele
O: Lészped (Bákó), 1932
Q: 1/4=132
L:1/4
K:F
(3:2:2 cc/ d/c/ B/B/d/c/ | B/A/G/F/ | C2 C/ z/ z | 
(3:2:2 cc/ d/c/ B/B/d/c/ | B<A B<F | |C2 C/ z/ z | 
F G A/G/F/C/ | B d B/B/d/d/ | c2 G z | 
c/c/d/c/ B/B/d/c/ | B A G<F | C2 C/ z/ z | 

